X: 1
T: Come Up The Back Stairs
M: 6/8
L: 1/8
R: jig
K: Gmaj
|:D2B B2A|AGF G2B|d2F FEF|A2G GFE|
D2B B2A|AGF GAB|d2F FEF|1 G3 G2E:|2 G3 G2||
|:d|gfg bge|edB def|gfg bge|ed^c def|
g2g gab|e2e efg|ded def|agf g2:||
